static/assets/images/exchanges/pancakeswap.svg

<svg width="253" height="256" viewBox="0 0 253 256" fill="none" xmlns="http://www.w3.org/2000/svg">
<path d="M10.3754 156.8V175.2C10.3754 214.4 62.2524 246.4 126.101 246.4C189.95 246.4 242.625 213.6 242.625 174.4V156.8C242.625 196 190.748 228 126.899 228C63.0505 228 10.3754 196 10.3754 156.8Z" fill="#FEDC90"/>
<path fill-rule="evenodd" clip-rule="evenodd" d="M45.4921 40C41.5016 19.2 57.4637 0 78.2145 0C96.571 0 111.735 15.2 111.735 33.6V75.2C116.504 74.4 120.536 74.1595 126.155 74.1779C131.463 74.1952 134.772 74.4 139.669 75.2V33.6C139.669 15.2 154.833 0 173.189 0C193.94 0 209.902 19.2 206.71 40L197.931 88.8C229.057 102.4 253 126.4 253 156V174.4C253 199.2 237.038 220 213.893 233.6C190.748 248 160.42 256 126.101 256C91.7823 256 61.4543 248 38.3092 233.6C15.9621 220 0 199.2 0 174.4V156C0 126.4 23.1451 102.4 54.2713 88.8L45.4921 40ZM196.334 37.6L185.959 96C220.278 108.8 243.423 130.4 242.625 156.8V174.4C242.625 213.6 189.95 246.4 126.101 246.4C62.2524 246.4 10.3754 214.4 10.3754 175.2V156.8C10.3754 131.2 33.5205 108.8 67.041 96L55.8675 38.4C52.6751 24 63.8486 10.4 78.2145 10.4C90.9842 10.4 101.36 20.8 101.36 33.6V86.4C109.341 85.6 117.322 84.8 126.101 84.8C134.082 84.8 142.063 85.6 150.044 86.4V32.8C150.044 20 160.42 9.6 173.189 9.6C187.237 9.6 199.229 22.0809 196.334 37.6Z" fill="#633001"/>
<path d="M182.767 151.2C182.767 161.6 177.18 170.4 169.997 170.4C162.814 170.4 157.227 161.6 157.227 151.2C157.227 140.8 162.814 132 169.997 132C177.18 132 182.767 140.8 182.767 151.2Z" fill="#633001"/>
<path fill-rule="evenodd" clip-rule="evenodd" d="M126.899 228C63.0505 228 10.3754 196 10.3754 156.8C10.3754 131.2 33.5205 108.8 67.041 96L55.8675 38.4C52.6751 24 63.8486 10.4 78.2145 10.4C90.9842 10.4 101.36 20.8 101.36 33.6V86.4C109.341 85.6 117.322 84.8 126.101 84.8C134.082 84.8 142.063 85.6 150.044 86.4V32.8C150.044 20 160.42 9.6 173.189 9.6C187.237 9.6 199.229 22.0809 196.334 37.6L185.959 96C220.278 108.8 243.423 130.4 242.625 156.8C242.625 196 190.748 228 126.899 228ZM182.767 151.2C182.767 161.6 177.18 170.4 169.997 170.4C162.814 170.4 157.227 161.6 157.227 151.2C157.227 140.8 162.814 132 169.997 132C177.18 132 182.767 140.8 182.767 151.2ZM81.4069 170.4C88.5899 170.4 94.1767 161.6 94.1767 151.2C94.1767 140.8 88.5899 132 81.4069 132C74.224 132 68.6372 140.8 68.6372 151.2C68.6372 161.6 74.224 170.4 81.4069 170.4Z" fill="#D2884F"/>
<path d="M94.1767 151.2C94.1767 161.6 88.5899 170.4 81.4069 170.4C74.224 170.4 68.6372 161.6 68.6372 151.2C68.6372 140.8 74.224 132 81.4069 132C88.5899 132 94.1767 140.8 94.1767 151.2Z" fill="#633001"/>
</svg>

<svg xmlns="http://www.w3.org/2000/svg" fill="none" viewBox="0 0 253 256"><path fill="#FEDC90" d="M10.375 156.8v18.4c0 39.2 51.877 71.2 115.726 71.2s116.524-32.8 116.524-72v-17.6c0 39.2-51.877 71.2-115.726 71.2S10.375 196 10.375 156.8"/><path fill="#633001" fill-rule="evenodd" d="M45.492 40C41.502 19.2 57.464 0 78.215 0c18.356 0 33.52 15.2 33.52 33.6v41.6c4.769-.8 8.801-1.04 14.42-1.022 5.308.017 8.617.222 13.514 1.022V33.6c0-18.4 15.164-33.6 33.52-33.6 20.751 0 36.713 19.2 33.521 40l-8.779 48.8C229.057 102.4 253 126.4 253 156v18.4c0 24.8-15.962 45.6-39.107 59.2C190.748 248 160.42 256 126.101 256s-64.647-8-87.792-22.4C15.962 220 0 199.2 0 174.4V156c0-29.6 23.145-53.6 54.271-67.2zm150.842-2.4L185.959 96c34.319 12.8 57.464 34.4 56.666 60.8v17.6c0 39.2-52.675 72-116.524 72s-115.726-32-115.726-71.2v-18.4c0-25.6 23.146-48 56.666-60.8L55.868 38.4c-3.193-14.4 7.98-28 22.347-28 12.77 0 23.145 10.4 23.145 23.2v52.8c7.981-.8 15.962-1.6 24.741-1.6 7.981 0 15.962.8 23.943 1.6V32.8c0-12.8 10.376-23.2 23.145-23.2 14.048 0 26.04 12.48 23.145 28" clip-rule="evenodd"/><path fill="#633001" d="M182.767 151.2c0 10.4-5.587 19.2-12.77 19.2s-12.77-8.8-12.77-19.2 5.587-19.2 12.77-19.2 12.77 8.8 12.77 19.2"/><path fill="#D2884F" fill-rule="evenodd" d="M126.899 228c-63.848 0-116.524-32-116.524-71.2 0-25.6 23.146-48 56.666-60.8L55.868 38.4c-3.193-14.4 7.98-28 22.347-28 12.77 0 23.145 10.4 23.145 23.2v52.8c7.981-.8 15.962-1.6 24.741-1.6 7.981 0 15.962.8 23.943 1.6V32.8c0-12.8 10.376-23.2 23.145-23.2 14.048 0 26.04 12.48 23.145 28L185.959 96c34.319 12.8 57.464 34.4 56.666 60.8 0 39.2-51.877 71.2-115.726 71.2m55.868-76.8c0 10.4-5.587 19.2-12.77 19.2s-12.77-8.8-12.77-19.2 5.587-19.2 12.77-19.2 12.77 8.8 12.77 19.2m-101.36 19.2c7.183 0 12.77-8.8 12.77-19.2S88.59 132 81.407 132s-12.77 8.8-12.77 19.2 5.587 19.2 12.77 19.2" clip-rule="evenodd"/><path fill="#633001" d="M94.177 151.2c0 10.4-5.587 19.2-12.77 19.2s-12.77-8.8-12.77-19.2 5.587-19.2 12.77-19.2 12.77 8.8 12.77 19.2"/></svg>
